X:1
T: Campsie Glen
C:
R:Strathspey
Q: 128
K:A
M:4/4
L:1/16
|:E2|CE3 E3A F3A E4|CE3 E3F A3B ce3|CE3 E3A F3A E3c|((3d2c2B2) ((3c2B2A2) GB3 B2E2|
CE3 E3A F3A E4|CE3 E3F A3B ce3|CE3 E3A F3A E3c|((3d2c2B2) ((3c2B2A2) GB3 B2d2|
ce3 e2fg a3e c4|ce3 e2fg a3e fa3|ce3 e2fg a3e c4|((3d2c2B2) ((3c2B2A2) GB3 B2d2|
ce3 e2fg a3e c4|ce3 e2fg a3e fa3|ec3 a3g f3e d3c|((3d2c2B2) ((3c2B2A2) GB3 B2:|
